!!!OTL: T&szlig; mé 'mo shuí, S. 88
!!!id: I0528
**kern
*clefG2
*k[f#c#g#]
*E:
{8e
=1
8e
4b
4b
4cc#
=2
2a
4b
=3
2g#
4a
=4
8f#
4.e
4e
=5
[2.e
=6
4e]}
4r
=7
{4e
=8
4e
4e
4e
=9
4.dd
8cc#
4dd
=10
2ee
8b
8cc#
=11
8dd
4.b
4g#
=12
[2.a
=13
4a]}
4r
=14
{8g#
8f#
=15
4e
4e
4e
=16
4dd
4cc#
4dd
=17
2ee
8b
8cc#
=18
8dd
4.b
4g#
=19
[2.a
=20
4a]}
4r
=21
{8g#
8a
=22
4b
4b
4cc#
=23
2a
4b
=24
2g#
4a
=25
8f#
4.e
4e
=26
[2.e
=27
4e]}
2r
==
*-
!!!minrhy: 8
!!!meters: 3/4 ]  ZZ[4
!!!cut: T&szlig; mé 'mo shuí, S. 88
!!!reg: Irland
!!!trd: O BOYLE, Sean: 25 Irish Folksongs, Dublin 1976
!!!rhy1:   X_X_X_  X__X_  X__X_  XX_.X_  X__.  ^_0_
!!!rhy2: X_  X_X_X_  X_.XX_  X__XX  XX_.X_  X__.  ^_0_
!!!key: I0528  08  E 3/4 ]  ZZ[4
!!!mod: HEPTATONIK MIXOLYDISCH]  AMBITUS[8
!!!kad: 1441
!!!akz: 543211_17b+17b44_17b+17b44_543211_
!!!fot: 'a__b__bw_c__
!!!for: 'a__b__c__av_
!!!fok: 'Sd_^a_Sa_^d_
!! PHRAS[VORWIEGEND AUFTAKTIG]
!!!fkt: Liebeslied, verbotene Liebe
!! IRISCHE VKL.
!! PR[15] 2K[6] 2G[26] 3K[6] 3G[2] 4A[0] 4Ü[0] 5A[2] 6K[0] 6G[2]
!! 7K[0] 7G[0] 8A[0] MEHR[0] SI[43] ABS[54] SR[31] SP[11]
!! ST[10] 2k[2] 2g[24] 3k[11] 3g[4] 4d[0] 4ü[0] 5d[2] 6k[0] 6g[0]
!! 7k[0] 7g[0] 8d[0] mehr[0] si[43] dm[0] sr[26] sp[17]
!! 1F[32] 2F[21] 3F[19] 4F[2] LF[0] 2P[21] 3P[2] 4P[4] TRI[4] DF[7] AB[57]
!! TF[0] U3K[0] U3[0] U4[4] U4Ü[0] U5[9] U6K[0] U6[2] U7K[16] U7[0]
!! N1[24] N2K[0] N2[13] N3K[9] N3[0] N4[11] N4Ü[0] N5[13] N6K[0] N6[0]
!!!n7k: 0] N7[0] O1[0] O2K[0] O2[0] O3K[0] O3[0] HÖ[0
!!!RNB: symbol: &szlig; = sz ligature (UTF-8: ÃŸ)
